packages/tokens/icons/coveoGo/size16Px.svg

<svg viewBox="0 0 16 16" fill="none" xmlns="http://www.w3.org/2000/svg" width="1em" height="1em"><path d="M6.34363 5.8C6.61163 5.8 6.84363 5.83 7.03963 5.89C7.23563 5.95 7.40163 6.022 7.53763 6.106C7.67363 6.186 7.78163 6.266 7.86163 6.346C7.94163 6.426 7.99963 6.484 8.03563 6.52L7.51363 6.982C7.46163 6.922 7.39963 6.862 7.32763 6.802C7.25563 6.738 7.17163 6.682 7.07563 6.634C6.97963 6.582 6.87163 6.54 6.75163 6.508C6.63163 6.476 6.49563 6.46 6.34363 6.46C6.15563 6.46 5.97963 6.494 5.81563 6.562C5.65563 6.626 5.51563 6.722 5.39563 6.85C5.27563 6.974 5.18163 7.128 5.11363 7.312C5.04563 7.492 5.01163 7.698 5.01163 7.93C5.01163 8.162 5.04563 8.37 5.11363 8.554C5.18563 8.734 5.28163 8.888 5.40163 9.016C5.52563 9.14 5.66963 9.236 5.83363 9.304C6.00163 9.368 6.18163 9.4 6.37363 9.4C6.56563 9.4 6.72563 9.384 6.85363 9.352C6.98163 9.32 7.08563 9.284 7.16563 9.244C7.25763 9.2 7.33163 9.148 7.38763 9.088V8.326H6.39163L6.39163 7.72L8.14363 7.72V9.382C8.10763 9.418 8.04563 9.474 7.95763 9.55C7.87363 9.626 7.75763 9.704 7.60963 9.784C7.46563 9.86 7.28963 9.928 7.08163 9.988C6.87363 10.044 6.63163 10.072 6.35563 10.072C6.06363 10.072 5.78563 10.026 5.52163 9.934C5.26163 9.842 5.03363 9.706 4.83763 9.526C4.64563 9.346 4.49163 9.124 4.37563 8.86C4.26363 8.592 4.20763 8.284 4.20763 7.936C4.20763 7.604 4.26363 7.306 4.37563 7.042C4.49163 6.778 4.64563 6.554 4.83763 6.37C5.03363 6.186 5.25963 6.046 5.51562 5.95C5.77563 5.85 6.05163 5.8 6.34363 5.8ZM8.66033 8.56C8.66033 8.332 8.70033 8.124 8.78033 7.936C8.86033 7.748 8.97033 7.588 9.11033 7.456C9.25433 7.324 9.42233 7.222 9.61433 7.15C9.80633 7.078 10.0143 7.042 10.2383 7.042C10.4623 7.042 10.6683 7.078 10.8563 7.15C11.0483 7.222 11.2143 7.324 11.3543 7.456C11.4983 7.588 11.6103 7.748 11.6903 7.936C11.7703 8.124 11.8103 8.332 11.8103 8.56C11.8103 8.788 11.7703 8.996 11.6903 9.184C11.6103 9.368 11.4983 9.526 11.3543 9.658C11.2143 9.79 11.0483 9.892 10.8563 9.964C10.6683 10.032 10.4623 10.066 10.2383 10.066C10.0143 10.066 9.80633 10.032 9.61433 9.964C9.42233 9.892 9.25433 9.79 9.11033 9.658C8.97033 9.526 8.86033 9.368 8.78033 9.184C8.70033 8.996 8.66033 8.788 8.66033 8.56ZM10.2383 9.43C10.4863 9.43 10.6783 9.346 10.8143 9.178C10.9503 9.006 11.0183 8.794 11.0183 8.542C11.0183 8.29 10.9503 8.08 10.8143 7.912C10.6783 7.744 10.4863 7.66 10.2383 7.66C9.98633 7.66 9.79233 7.744 9.65633 7.912C9.52433 8.08 9.45833 8.29 9.45833 8.542C9.45833 8.794 9.52433 9.006 9.65633 9.178C9.79233 9.346 9.98633 9.43 10.2383 9.43Z" fill="currentColor"/><path d="M1.61786 9.1925C1.03208 8.60671 1.03208 7.65696 1.61786 7.07118L6.92117 1.76788C7.50695 1.18209 8.4567 1.18209 9.04249 1.76788L14.3458 7.07118C14.9316 7.65696 14.9316 8.60671 14.3458 9.1925L9.04249 14.4958C8.4567 15.0816 7.50695 15.0816 6.92117 14.4958L1.61786 9.1925Z" stroke="currentColor"/></svg>

<svg xmlns="http://www.w3.org/2000/svg" fill="none" viewBox="0 0 16 16" width="1em" height="1em"><path fill="currentColor" d="M6.344 5.8c.268 0 .5.03.696.09.196.06.362.132.498.216.136.08.244.16.324.24l.174.174-.522.462a1.605 1.605 0 0 0-.438-.348 1.477 1.477 0 0 0-.732-.174c-.188 0-.364.034-.528.102-.16.064-.3.16-.42.288-.12.124-.214.278-.282.462-.068.18-.102.386-.102.618 0 .232.034.44.102.624.072.18.168.334.288.462.124.124.268.22.432.288.168.064.348.096.54.096.192 0 .352-.016.48-.048s.232-.068.312-.108a.73.73 0 0 0 .222-.156v-.762h-.996V7.72h1.752v1.662a3.896 3.896 0 0 1-.186.168c-.084.076-.2.154-.348.234-.144.076-.32.144-.528.204-.208.056-.45.084-.726.084-.292 0-.57-.046-.834-.138a1.971 1.971 0 0 1-.684-.408 2.005 2.005 0 0 1-.462-.666 2.38 2.38 0 0 1-.168-.924c0-.332.056-.63.168-.894.116-.264.27-.488.462-.672.196-.184.422-.324.678-.42.26-.1.536-.15.828-.15ZM8.66 8.56c0-.228.04-.436.12-.624.08-.188.19-.348.33-.48.144-.132.312-.234.504-.306.192-.072.4-.108.624-.108.224 0 .43.036.618.108.192.072.358.174.498.306.144.132.256.292.336.48.08.188.12.396.12.624 0 .228-.04.436-.12.624a1.468 1.468 0 0 1-.834.78 1.805 1.805 0 0 1-.618.102c-.224 0-.432-.034-.624-.102a1.535 1.535 0 0 1-.504-.306c-.14-.132-.25-.29-.33-.474a1.578 1.578 0 0 1-.12-.624Zm1.578.87c.248 0 .44-.084.576-.252a.994.994 0 0 0 .204-.636.969.969 0 0 0-.204-.63c-.136-.168-.328-.252-.576-.252-.252 0-.446.084-.582.252a.988.988 0 0 0-.198.63c0 .252.066.464.198.636.136.168.33.252.582.252Z"/><path stroke="currentColor" d="M1.618 9.193a1.5 1.5 0 0 1 0-2.122L6.92 1.768a1.5 1.5 0 0 1 2.121 0l5.304 5.303a1.5 1.5 0 0 1 0 2.122l-5.304 5.303a1.5 1.5 0 0 1-2.12 0L1.617 9.193Z"/></svg>
